austria/municipalities/10506.svg

<?xml version="1.0" encoding="UTF-8" standalone="no"?>
<!-- Created with Inkscape (http://www.inkscape.org/) -->
<svg
   xmlns:dc="http://purl.org/dc/elements/1.1/"
   xmlns:cc="http://creativecommons.org/ns#"
   xmlns:rdf="http://www.w3.org/1999/02/22-rdf-syntax-ns#"
   xmlns:svg="http://www.w3.org/2000/svg"
   xmlns="http://www.w3.org/2000/svg"
   xmlns:sodipodi="http://sodipodi.sourceforge.net/DTD/sodipodi-0.dtd"
   xmlns:inkscape="http://www.inkscape.org/namespaces/inkscape"
   width="215"
   height="250"
   id="svg4165"
   sodipodi:version="0.32"
   inkscape:version="0.46"
   version="1.0"
   sodipodi:docname="COA.svg"
   inkscape:output_extension="org.inkscape.output.svg.inkscape">
  <defs
     id="defs4167">
    <inkscape:perspective
       sodipodi:type="inkscape:persp3d"
       inkscape:vp_x="0 : 526.18109 : 1"
       inkscape:vp_y="0 : 1000 : 0"
       inkscape:vp_z="744.09448 : 526.18109 : 1"
       inkscape:persp3d-origin="372.04724 : 350.78739 : 1"
       id="perspective4173" />
    <inkscape:perspective
       id="perspective5459"
       inkscape:persp3d-origin="372.04724 : 350.78739 : 1"
       inkscape:vp_z="744.09448 : 526.18109 : 1"
       inkscape:vp_y="0 : 1000 : 0"
       inkscape:vp_x="0 : 526.18109 : 1"
       sodipodi:type="inkscape:persp3d" />
  </defs>
  <sodipodi:namedview
     id="base"
     pagecolor="#ffffff"
     bordercolor="#666666"
     borderopacity="1.0"
     gridtolerance="10000"
     guidetolerance="10"
     objecttolerance="10"
     inkscape:pageopacity="0.0"
     inkscape:pageshadow="2"
     inkscape:zoom="0.98994949"
     inkscape:cx="153.39054"
     inkscape:cy="206.30761"
     inkscape:document-units="px"
     inkscape:current-layer="layer1"
     showgrid="false"
     inkscape:window-width="863"
     inkscape:window-height="669"
     inkscape:window-x="46"
     inkscape:window-y="46" />
  <metadata
     id="metadata4170">
    <rdf:RDF>
      <cc:Work
         rdf:about="">
        <dc:format>image/svg+xml</dc:format>
        <dc:type
           rdf:resource="http://purl.org/dc/dcmitype/StillImage" />
      </cc:Work>
    </rdf:RDF>
  </metadata>
  <g
     inkscape:label="Layer 1"
     inkscape:groupmode="layer"
     id="layer1"
     transform="translate(-273.71875,-415.62821)">
    <path
       d="M 282.78982,428.73989 L 282.78982,572.30239 C 282.78982,630.87817 349.9282,660.87831 382.07107,658.02114 C 414.21392,660.87831 481.35232,630.87817 481.35232,572.30239 L 481.35232,428.73989 L 382.07107,428.73989 L 282.78982,428.73989 z"
       style="opacity:0.95192309;fill:none;fill-opacity:1;fill-rule:evenodd;stroke:#000000;stroke-width:4;stroke-linecap:butt;stroke-linejoin:miter;stroke-miterlimit:4;stroke-dasharray:none;stroke-opacity:1"
       id="path3205" />
    <path
       style="opacity:1;fill:#f6ca2b;fill-opacity:1;fill-rule:evenodd;stroke:#000000;stroke-width:0.5;stroke-linecap:butt;stroke-linejoin:miter;stroke-miterlimit:4;stroke-dasharray:none;stroke-opacity:1"
       d="M 282.78982,428.73668 L 282.78982,572.29918 C 282.78982,630.87494 349.9282,660.8751 382.07107,658.01793 L 382.07107,428.73668 L 282.78982,428.73668 z"
       id="rect5626" />
    <path
       style="fill:#fe0001;fill-opacity:1;fill-rule:evenodd;stroke:#1a1a1a;stroke-width:0.5;stroke-linecap:butt;stroke-linejoin:miter;stroke-miterlimit:4;stroke-dasharray:none;stroke-opacity:1"
       d="M 304.07107,449.64293 C 313.61761,457.49358 322.32427,477.80778 322.75857,493.86168 L 322.57107,526.26793 C 311.79732,523.8928 301.59091,517.85014 293.69607,507.79918 L 293.69607,566.39293 C 302.61872,555.16991 312.70172,550.71121 322.41482,548.76793 L 322.22732,582.29918 C 322.58446,592.24427 314.03875,612.41222 303.53982,620.67418 L 359.60232,620.67418 C 359.60232,620.67418 343.31923,602.17927 344.47732,581.79918 L 344.47732,548.01793 C 354.19308,549.92868 362.85047,555.52757 372.50857,566.39293 L 372.50857,507.79918 C 363.88647,518.16312 354.47743,523.91092 344.94607,526.11168 C 344.79175,526.14731 344.63188,526.17121 344.47732,526.20543 L 344.47732,525.20543 L 344.47732,490.64293 C 344.47732,490.64293 343.26717,472.8458 362.13357,449.64293 L 304.07107,449.64293 z"
       id="path6140" />
    <path
       style="opacity:1;fill:#2b654d;fill-opacity:1;fill-rule:evenodd;stroke:#000000;stroke-width:0.5;stroke-linecap:butt;stroke-linejoin:miter;stroke-miterlimit:4;stroke-dasharray:none;stroke-opacity:1"
       d="M 398.50857,552.33043 L 382.07107,567.11168 L 382.07107,658.01793 C 414.21392,660.87508 481.35232,630.87496 481.35232,572.29918 L 481.35232,568.70543 L 460.63357,552.33043 L 398.50857,552.33043 z"
       id="path6144" />
    <path
       style="opacity:1;fill:#fe0002;fill-opacity:1;fill-rule:evenodd;stroke:#000000;stroke-width:0.5;stroke-linecap:butt;stroke-linejoin:miter;stroke-miterlimit:4;stroke-dasharray:none;stroke-opacity:1"
       d="M 382.07107,428.73668 L 382.07107,567.11168 L 398.50857,552.33043 L 460.63357,552.33043 L 481.35232,568.70543 L 481.35232,428.73668 L 382.07107,428.73668 z"
       id="rect6152" />
    <path
       style="fill:#f6ca2b;fill-opacity:1;fill-rule:evenodd;stroke:#000000;stroke-width:0.5;stroke-linecap:butt;stroke-linejoin:miter;stroke-miterlimit:4;stroke-dasharray:none;stroke-opacity:1"
       d="M 416.71393,504.18815 L 453.85678,504.18815 L 453.85678,547.40243 L 404.57107,547.40243 L 404.57107,521.331 L 416.53536,509.36672 L 416.71393,504.18815 z"
       id="path6163" />
    <path
       style="fill:#ff3338;fill-opacity:1;fill-rule:evenodd;stroke:#000000;stroke-width:1px;stroke-linecap:butt;stroke-linejoin:miter;stroke-opacity:1"
       d="M 418.1425,526.331 L 418.1425,533.831 L 427.42821,533.831 L 427.42821,526.331 C 427.42821,519.57528 418.1425,519.72766 418.1425,526.331 z"
       id="path6165"
       sodipodi:nodetypes="ccccc" />
    <path
       sodipodi:nodetypes="ccccc"
       id="path6167"
       d="M 436.71393,526.331 L 436.71393,533.831 L 445.99964,533.831 L 445.99964,526.331 C 445.99964,519.57528 436.71393,519.72766 436.71393,526.331 z"
       style="fill:#ff3338;fill-opacity:1;fill-rule:evenodd;stroke:#000000;stroke-width:1px;stroke-linecap:butt;stroke-linejoin:miter;stroke-opacity:1" />
  </g>
</svg>

<svg xmlns="http://www.w3.org/2000/svg" width="215" height="250" version="1.0"><path d="M282.79 428.74v143.562c0 58.576 67.138 88.576 99.281 85.72 32.143 2.856 99.281-27.144 99.281-85.72V428.74H282.79z" style="opacity:.95192309;fill:none;fill-opacity:1;fill-rule:evenodd;stroke:#000;stroke-width:4;stroke-linecap:butt;stroke-linejoin:miter;stroke-miterlimit:4;stroke-dasharray:none;stroke-opacity:1" transform="translate(-273.719 -415.628)"/><path style="opacity:1;fill:#f6ca2b;fill-opacity:1;fill-rule:evenodd;stroke:#000;stroke-width:.5;stroke-linecap:butt;stroke-linejoin:miter;stroke-miterlimit:4;stroke-dasharray:none;stroke-opacity:1" d="M282.79 428.737v143.562c0 58.576 67.138 88.576 99.281 85.719V428.737H282.79z" transform="translate(-273.719 -415.628)"/><path style="fill:#fe0001;fill-opacity:1;fill-rule:evenodd;stroke:#1a1a1a;stroke-width:.5;stroke-linecap:butt;stroke-linejoin:miter;stroke-miterlimit:4;stroke-dasharray:none;stroke-opacity:1" d="M304.071 449.643c9.547 7.85 18.253 28.165 18.688 44.219l-.188 32.406c-10.774-2.375-20.98-8.418-28.875-18.469v58.594c8.923-11.223 19.006-15.682 28.719-17.625l-.188 33.531c.357 9.945-8.188 30.113-18.687 38.375h56.062S343.32 602.18 344.477 581.8v-33.781c9.716 1.91 18.373 7.51 28.032 18.375v-58.594c-8.623 10.364-18.032 16.112-27.563 18.313-.154.035-.314.06-.469.093v-35.562s-1.21-17.797 17.657-41H304.07z" transform="translate(-273.719 -415.628)"/><path style="opacity:1;fill:#2b654d;fill-opacity:1;fill-rule:evenodd;stroke:#000;stroke-width:.5;stroke-linecap:butt;stroke-linejoin:miter;stroke-miterlimit:4;stroke-dasharray:none;stroke-opacity:1" d="m398.509 552.33-16.438 14.782v90.906c32.143 2.857 99.281-27.143 99.281-85.719v-3.594l-20.718-16.375h-62.125z" transform="translate(-273.719 -415.628)"/><path style="opacity:1;fill:#fe0002;fill-opacity:1;fill-rule:evenodd;stroke:#000;stroke-width:.5;stroke-linecap:butt;stroke-linejoin:miter;stroke-miterlimit:4;stroke-dasharray:none;stroke-opacity:1" d="M382.071 428.737v138.375l16.438-14.782h62.125l20.718 16.375V428.737h-99.28z" transform="translate(-273.719 -415.628)"/><path style="fill:#f6ca2b;fill-opacity:1;fill-rule:evenodd;stroke:#000;stroke-width:.5;stroke-linecap:butt;stroke-linejoin:miter;stroke-miterlimit:4;stroke-dasharray:none;stroke-opacity:1" d="M416.714 504.188h37.143v43.214H404.57v-26.071l11.964-11.964.179-5.179z" transform="translate(-273.719 -415.628)"/><path style="fill:#ff3338;fill-opacity:1;fill-rule:evenodd;stroke:#000;stroke-width:1px;stroke-linecap:butt;stroke-linejoin:miter;stroke-opacity:1" d="M418.142 526.331v7.5h9.286v-7.5c0-6.756-9.286-6.603-9.286 0zM436.714 526.331v7.5H446v-7.5c0-6.756-9.286-6.603-9.286 0z" transform="translate(-273.719 -415.628)"/></svg>
